X: 181786
T: Rambling Connachtman
T: Camchuairt an Chonnachtaigh
S: B.Breathnach:"Ceol Rince na hEireann" IV/173
Z: B.Black
L: 1/8
M: 4/4
R: reel
K: G
Bc|dBGf g2 fg|ecAB c2 ce|dBGf g2 fe|(3dec (3BcA GABc|
dBGf g2 fg|ecAB c2 ce|dBGf g2 fe|dcBA GBdf ||
g2 eg f2 df|g2 ef gbaf|g2 eg fdge|dcBA GBdf|
gfeg fedf|edBe dBGB|cBAB cdeg|(3fed ef g2 fe ||
